;Generated by Cura LulzBot Edition GCodeWriter Version: 3.6.29
;FLAVOR:Marlin
;TIME:4976
;Filament used: 2.20568m
;Layer height: 0.25
;Generated with Cura_SteamEngine 3.6.29-2
M82 ;absolute extrusion mode
;This G-Code has been generated specifically for the LulzBot TAZ 6 with standard extruder
M73 P0 ; clear GLCD progress bar
M75 ; start GLCD timer
G26 ; clear potential 'probe fail' condition
M107 ; disable fans
M420 S0 ; disable previous leveling matrix
G90 ; absolute positioning
M82 ; set extruder to absolute mode
G92 E0 ; set extruder position to 0
M140 S70.0 ; start bed heating up
M109 R170 ; soften filament before homing Z
G28 ; Home all axis
G1 E-30 F100 ; retract filament
G12                         ; wiping sequence
M109 R170 ; wait for extruder to reach probe temp
G1 X-10 Y293 F4000 ; move above first probe point
M204 S100 ; set probing acceleration
G29 ; start auto-leveling sequence
M420 S1 ; activate bed level matrix
M425 Z			     ; use measured Z backlash for compensation
M425 Z F0		     ; turn off measured Z backlash compensation. (if activated in the quality settings, this command will automatically be ignored)
M204 S500 ; restore standard acceleration
G1 X0 Y0 Z15 F5000 ; move up off last probe point
G4 S1 ; pause
M400 ; wait for moves to finish
M117 Heating... ; progress indicator message on LCD
M109 R250 ; wait for extruder to reach printing temp
M190 R70.0 ; wait for bed to reach printing temp
G1 Z2 E0 F75 ; prime tiny bit of filament into the nozzle
M117 TAZ 6 Printing... ; progress indicator message on LCD

M221 S100 T0
G92 E0
G1 F1500 E-4
;LAYER_COUNT:139
;LAYER:0
M107
G0 F5250 X99.511 Y134.811 Z0.425
;TYPE:SKIRT
G1 F1500 E0
G1 F1200 X99.953 Y134.495 E0.0181
G1 X103.043 Y132.604 E0.13877
G1 X107.57 Y129.541 E0.32084
G1 X111.882 Y126.254 E0.50145
G1 X116.036 Y122.698 E0.6836
G1 X119.966 Y118.928 E0.865
G1 X123.677 Y114.943 E1.04639
G1 X125.424 Y112.898 E1.13598
G1 X128.801 Y108.589 E1.31834
G1 X131.908 Y104.129 E1.4994
G1 X134.514 Y99.931 E1.66399
G1 X134.836 Y99.488 E1.68223
G1 X135.219 Y99.097 E1.70047
G1 X135.655 Y98.766 E1.7187
G1 X136.134 Y98.502 E1.73692
G1 X136.647 Y98.31 E1.75516
G1 X137.182 Y98.195 E1.77339
G1 X137.701 Y98.159 E1.79072
G1 X142.304 Y98.16 E1.94405
G1 X142.85 Y98.2 E1.96229
G1 X143.384 Y98.319 E1.98051
G1 X143.895 Y98.515 E1.99874
G1 X144.372 Y98.783 E2.01697
G1 X144.806 Y99.117 E2.03521
G1 X145.186 Y99.511 E2.05344
G1 X145.475 Y99.909 E2.06983
G1 X148.904 Y105.344 E2.28389
G1 X152.082 Y109.766 E2.46528
G1 X155.491 Y113.982 E2.64588
G1 X159.155 Y118.027 E2.82768
G1 X163.024 Y121.837 E3.00856
G1 X167.157 Y125.472 E3.1919
G1 X169.22 Y127.136 E3.28019
G1 X173.61 Y130.379 E3.46199
G1 X178.203 Y133.389 E3.64492
G1 X180.022 Y134.483 E3.71562
G1 X180.47 Y134.799 E3.73388
G1 X180.866 Y135.176 E3.7521
G1 X181.204 Y135.607 E3.77034
G1 X181.475 Y136.083 E3.78859
G1 X181.674 Y136.592 E3.80679
G1 X181.796 Y137.126 E3.82504
G1 X181.84 Y137.697 E3.84411
G1 X181.84 Y142.304 E3.99758
G1 X181.8 Y142.85 E4.01581
G1 X181.681 Y143.384 E4.03404
G1 X181.486 Y143.895 E4.05225
G1 X181.218 Y144.373 E4.07051
G1 X180.883 Y144.806 E4.08874
G1 X180.489 Y145.186 E4.10698
G1 X180.09 Y145.476 E4.12341
G1 X174.662 Y148.9 E4.33719
G1 X170.243 Y152.076 E4.51846
G1 X166.009 Y155.499 E4.69982
G1 X161.972 Y159.156 E4.88126
G1 X158.162 Y163.025 E5.06214
G1 X154.528 Y167.157 E5.24544
G1 X152.864 Y169.22 E5.33372
G1 X149.621 Y173.61 E5.51553
G1 X146.613 Y178.2 E5.69833
G1 X145.514 Y180.025 E5.76929
G1 X145.198 Y180.472 E5.78753
G1 X144.82 Y180.869 E5.80579
G1 X144.389 Y181.206 E5.82401
G1 X143.914 Y181.477 E5.84223
G1 X143.404 Y181.675 E5.86045
G1 X142.87 Y181.798 E5.87871
G1 X142.3 Y181.841 E5.89775
G1 X137.696 Y181.84 E6.05111
G1 X137.15 Y181.8 E6.06934
G1 X136.616 Y181.681 E6.08757
G1 X136.105 Y181.485 E6.1058
G1 X135.628 Y181.217 E6.12402
G1 X135.194 Y180.883 E6.14227
G1 X134.814 Y180.489 E6.1605
G1 X134.498 Y180.047 E6.1786
G1 X132.622 Y176.98 E6.29836
G1 X129.561 Y172.454 E6.48036
G1 X126.267 Y168.132 E6.66138
G1 X122.727 Y163.995 E6.84275
G1 X118.95 Y160.056 E7.02453
G1 X114.963 Y156.343 E7.20601
G1 X112.907 Y154.586 E7.2961
G1 X108.631 Y151.233 E7.4771
G1 X104.143 Y148.106 E7.65931
G1 X99.931 Y145.491 E7.82445
G1 X99.488 Y145.169 E7.84269
G1 X99.097 Y144.786 E7.86093
G1 X98.766 Y144.35 E7.87916
G1 X98.502 Y143.871 E7.89738
G1 X98.31 Y143.358 E7.91562
G1 X98.195 Y142.823 E7.93385
G1 X98.159 Y142.304 E7.95118
G1 X98.16 Y137.693 E8.10478
G1 X98.2 Y137.147 E8.12301
G1 X98.319 Y136.613 E8.14124
G1 X98.515 Y136.102 E8.15947
G1 X98.783 Y135.625 E8.17769
G1 X99.117 Y135.191 E8.19593
G1 X99.511 Y134.811 E8.21417
G0 F5250 X99.998 Y135.066
G1 F1200 X100.214 Y134.922 E8.22282
G1 X103.302 Y133.032 E8.34342
G1 X107.856 Y129.951 E8.52657
G1 X112.214 Y126.629 E8.7091
G1 X116.364 Y123.077 E8.89106
G1 X120.306 Y119.294 E9.07305
G1 X124.068 Y115.255 E9.25691
G1 X125.822 Y113.203 E9.34683
G1 X129.188 Y108.906 E9.52865
G1 X132.336 Y104.388 E9.71208
G1 X134.939 Y100.195 E9.87647
G1 X135.241 Y99.784 E9.89346
G1 X135.603 Y99.426 E9.91042
G1 X136.017 Y99.129 E9.92739
G1 X136.472 Y98.9 E9.94436
G1 X136.958 Y98.745 E9.96135
G1 X137.701 Y98.659 E9.98627
G1 X142.304 Y98.66 E10.1396
G1 X142.812 Y98.7 E10.15657
G1 X143.307 Y98.819 E10.17353
G1 X143.778 Y99.014 E10.19051
G1 X144.212 Y99.28 E10.20747
G1 X144.6 Y99.611 E10.22445
G1 X145.052 Y100.176 E10.24856
G1 X148.488 Y105.622 E10.46305
G1 X151.683 Y110.067 E10.6454
G1 X155.109 Y114.306 E10.82695
G1 X158.787 Y118.365 E11.00941
G1 X162.705 Y122.224 E11.19259
G1 X166.816 Y125.84 E11.37497
G1 X168.913 Y127.531 E11.4647
G1 X173.336 Y130.799 E11.64789
G1 X177.925 Y133.805 E11.83062
G1 X179.765 Y134.912 E11.90215
G1 X180.179 Y135.208 E11.91911
G1 X180.543 Y135.565 E11.93609
G1 X180.846 Y135.974 E11.95304
G1 X181.081 Y136.426 E11.97001
G1 X181.243 Y136.909 E11.98698
G1 X181.327 Y137.412 E12.00397
G1 X181.34 Y137.697 E12.01347
G1 X181.34 Y142.304 E12.16694
G1 X181.3 Y142.812 E12.18391
G1 X181.181 Y143.307 E12.20087
G1 X180.986 Y143.778 E12.21785
G1 X180.72 Y144.213 E12.23483
G1 X180.39 Y144.6 E12.25177
G1 X179.824 Y145.053 E12.27592
G1 X174.376 Y148.489 E12.49048
G1 X169.933 Y151.683 E12.67275
G1 X165.693 Y155.11 E12.85435
G1 X161.634 Y158.788 E13.03681
G1 X157.775 Y162.706 E13.21999
G1 X154.16 Y166.816 E13.40232
G1 X152.469 Y168.913 E13.49205
G1 X149.201 Y173.336 E13.67524
G1 X146.189 Y177.933 E13.85831
G1 X145.085 Y179.767 E13.92961
G1 X144.789 Y180.182 E13.94659
G1 X144.432 Y180.545 E13.96355
G1 X144.022 Y180.848 E13.98053
G1 X143.57 Y181.083 E13.9975
G1 X143.087 Y181.245 E14.01447
G1 X142.584 Y181.329 E14.03146
G1 X142.3 Y181.341 E14.04093
G1 X137.696 Y181.34 E14.19429
G1 X137.188 Y181.3 E14.21126
G1 X136.693 Y181.181 E14.22822
G1 X136.222 Y180.986 E14.2452
G1 X135.788 Y180.72 E14.26216
G1 X135.4 Y180.389 E14.27915
G1 X135.069 Y180.002 E14.29611
G1 X134.925 Y179.786 E14.30476
G1 X133.05 Y176.721 E14.42444
G1 X129.971 Y172.167 E14.60756
G1 X126.649 Y167.809 E14.79009
G1 X123.097 Y163.659 E14.97205
G1 X119.316 Y159.715 E15.15404
G1 X115.274 Y155.952 E15.338
G1 X113.237 Y154.21 E15.42728
G1 X108.919 Y150.825 E15.61004
G1 X104.411 Y147.684 E15.79306
G1 X100.195 Y145.066 E15.95837
G1 X99.784 Y144.764 E15.97536
G1 X99.426 Y144.402 E15.99232
G1 X99.129 Y143.988 E16.00929
G1 X98.9 Y143.533 E16.02626
G1 X98.745 Y143.047 E16.04325
G1 X98.659 Y142.304 E16.06817
G1 X98.66 Y137.693 E16.22176
G1 X98.7 Y137.185 E16.23873
G1 X98.819 Y136.69 E16.25569
G1 X99.014 Y136.219 E16.27267
G1 X99.28 Y135.785 E16.28963
G1 X99.611 Y135.397 E16.30662
G1 X99.998 Y135.066 E16.32358
G1 F1500 E12.32358
;MESH:
G0 F5250 X136.582 Y136.065
G0 X137.588 Y137.085
G0 X138.529 Y136.51
G0 X138.441 Y136.464
;TYPE:WALL-INNER
G1 F1500 E16.32358
G1 F1200 X138.441 Y102.65 E17.44994
G1 X141.559 Y102.65 E17.5538
G1 X141.559 Y136.461 E18.68006
G1 X142.449 Y137.093 E18.71642
G1 X142.919 Y137.566 E18.73863
G1 X143.538 Y138.441 E18.77433
G1 X177.35 Y138.441 E19.90062
G1 X177.35 Y141.559 E20.00448
G1 X143.537 Y141.559 E21.13081
G1 X142.918 Y142.436 E21.16656
G1 X142.459 Y142.899 E21.18828
G1 X141.559 Y143.539 E21.22507
G1 X141.559 Y177.35 E22.35132
G1 X138.441 Y177.35 E22.45518
G1 X138.441 Y143.536 E23.58154
G1 X137.584 Y142.935 E23.61641
G1 X137.107 Y142.466 E23.63869
G1 X136.465 Y141.565 E23.67554
G1 X102.65 Y141.565 E24.80193
G1 X102.65 Y138.438 E24.90609
G1 X136.463 Y138.438 E26.03242
G1 X137.11 Y137.529 E26.06958
G1 X137.576 Y137.07 E26.09137
G1 X138.441 Y136.464 E26.12655
G0 F5250 X138.529 Y136.51
G0 X138.285 Y143.306
G0 X137.941 Y143.796
;TYPE:WALL-OUTER
G1 F1200 X137.258 Y143.317 E26.15434
G1 X136.728 Y142.796 E26.1791
G1 X136.207 Y142.065 E26.209
G1 X102.15 Y142.065 E27.34345
G1 X102.15 Y137.938 E27.48092
G1 X136.205 Y137.938 E28.61531
G1 X136.727 Y137.205 E28.64528
G1 X137.254 Y136.686 E28.66992
G1 X137.941 Y136.204 E28.69787
G1 X137.941 Y102.15 E29.83222
G1 X142.059 Y102.15 E29.9694
G1 X142.059 Y136.203 E31.10371
G1 X142.776 Y136.712 E31.133
G1 X143.301 Y137.24 E31.15781
G1 X143.797 Y137.941 E31.18641
G1 X177.85 Y137.941 E32.32073
G1 X177.85 Y142.059 E32.4579
G1 X143.796 Y142.059 E33.59225
G1 X143.304 Y142.757 E33.6207
G1 X142.781 Y143.284 E33.64543
G1 X142.059 Y143.797 E33.67493
G1 X142.059 Y177.85 E34.80925
G1 X137.941 Y177.85 E34.94642
G1 X137.941 Y143.796 E36.08077
G0 F5250 X137.737 Y143.653
G0 X138.081 Y143.163
G0 X137.894 Y142.554
;TYPE:SKIN
G1 F1200 X137.482 Y142.149 E36.10002
G1 X136.718 Y141.075 E36.14392
G1 X103.14 Y141.075 E37.26242
G1 X103.14 Y138.928 E37.33393
G1 X136.716 Y138.928 E38.45236
G1 X137.488 Y137.843 E38.49672
G1 X137.885 Y137.452 E38.51528
G1 X138.931 Y136.719 E38.55783
G1 X138.931 Y103.14 E39.67636
G1 X141.069 Y103.14 E39.74757
G1 X141.069 Y136.714 E40.86593
G1 X142.137 Y137.473 E40.90958
G1 X142.54 Y137.879 E40.92863
G1 X143.285 Y138.931 E40.97157
G1 X176.86 Y138.931 E42.08997
G1 X176.86 Y141.069 E42.16119
G1 X143.283 Y141.069 E43.27965
G1 X142.544 Y142.117 E43.32236
G1 X142.143 Y142.522 E43.34135
G1 X141.069 Y143.286 E43.38525
G1 X141.069 Y176.86 E44.50361
G1 X138.931 Y176.86 E44.57483
G1 X138.931 Y143.281 E45.69336
G1 X137.894 Y142.554 E45.73555
G0 F5250 X136.483 Y141.53
G0 X104.079 Y140.849
G1 F1200 X103.365 Y140.135 E45.76918
G0 F5250 X103.365 Y139.428
G1 F1200 X104.786 Y140.849 E45.83612
G0 F5250 X105.493 Y140.849
G1 F1200 X103.796 Y139.152 E45.91606
G0 F5250 X104.504 Y139.152
G1 F1200 X106.201 Y140.849 E45.99601
G0 F5250 X106.908 Y140.849
G1 F1200 X105.211 Y139.152 E46.07595
G0 F5250 X105.918 Y139.152
G1 F1200 X107.615 Y140.849 E46.15589
G0 F5250 X108.322 Y140.849
G1 F1200 X106.625 Y139.152 E46.23583
G0 F5250 X107.332 Y139.152
G1 F1200 X109.029 Y140.849 E46.31578
G0 F5250 X109.736 Y140.849
G1 F1200 X108.039 Y139.152 E46.39572
G0 F5250 X108.746 Y139.152
G1 F1200 X110.443 Y140.849 E46.47566
G0 F5250 X111.15 Y140.849
G1 F1200 X109.453 Y139.152 E46.5556
G0 F5250 X110.16 Y139.152
G1 F1200 X111.857 Y140.849 E46.63554
G0 F5250 X112.565 Y140.849
G1 F1200 X110.867 Y139.152 E46.71551
G0 F5250 X111.575 Y139.152
G1 F1200 X113.272 Y140.849 E46.79545
G0 F5250 X113.979 Y140.849
G1 F1200 X112.282 Y139.152 E46.87539
G0 F5250 X112.989 Y139.152
G1 F1200 X114.686 Y140.849 E46.95534
G0 F5250 X115.393 Y140.849
G1 F1200 X113.696 Y139.152 E47.03528
G0 F5250 X114.403 Y139.152
G1 F1200 X116.1 Y140.849 E47.11522
G0 F5250 X116.807 Y140.849
G1 F1200 X115.11 Y139.152 E47.19516
G0 F5250 X115.817 Y139.152
G1 F1200 X117.514 Y140.849 E47.27511
G0 F5250 X118.221 Y140.849
G1 F1200 X116.524 Y139.152 E47.35505
G0 F5250 X117.231 Y139.152
G1 F1200 X118.928 Y140.849 E47.43499
G0 F5250 X119.636 Y140.849
G1 F1200 X117.939 Y139.152 E47.51493
G0 F5250 X118.646 Y139.152
G1 F1200 X120.343 Y140.849 E47.59487
G0 F5250 X121.05 Y140.849
G1 F1200 X119.353 Y139.152 E47.67482
G0 F5250 X120.06 Y139.152
G1 F1200 X121.757 Y140.849 E47.75476
G0 F5250 X122.464 Y140.849
G1 F1200 X120.767 Y139.152 E47.8347
G0 F5250 X121.474 Y139.152
G1 F1200 X123.171 Y140.849 E47.91464
G0 F5250 X123.878 Y140.849
G1 F1200 X122.181 Y139.152 E47.99459
G0 F5250 X122.888 Y139.152
G1 F1200 X124.585 Y140.849 E48.07453
G0 F5250 X125.292 Y140.849
G1 F1200 X123.595 Y139.152 E48.15447
G0 F5250 X124.303 Y139.152
G1 F1200 X126 Y140.849 E48.23441
G0 F5250 X126.707 Y140.849
G1 F1200 X125.01 Y139.152 E48.31435
G0 F5250 X125.717 Y139.152
G1 F1200 X127.414 Y140.849 E48.3943
G0 F5250 X128.121 Y140.849
G1 F1200 X126.424 Y139.152 E48.47424
G0 F5250 X127.131 Y139.152
G1 F1200 X128.828 Y140.849 E48.55418
G0 F5250 X129.535 Y140.849
G1 F1200 X127.838 Y139.152 E48.63412
G0 F5250 X128.545 Y139.152
G1 F1200 X130.242 Y140.849 E48.71407
G0 F5250 X130.949 Y140.849
G1 F1200 X129.252 Y139.152 E48.79401
G0 F5250 X129.959 Y139.152
G1 F1200 X131.656 Y140.849 E48.87395
G0 F5250 X132.364 Y140.849
G1 F1200 X130.666 Y139.152 E48.95392
G0 F5250 X131.374 Y139.152
G1 F1200 X133.071 Y140.849 E49.03386
G0 F5250 X133.778 Y140.849
G1 F1200 X132.081 Y139.152 E49.1138
G0 F5250 X132.788 Y139.152
G1 F1200 X134.485 Y140.849 E49.19374
G0 F5250 X135.192 Y140.849
G1 F1200 X133.495 Y139.152 E49.27368
G0 F5250 X134.202 Y139.152
G1 F1200 X135.899 Y140.849 E49.35363
G0 F5250 X136.606 Y140.849
G1 F1200 X134.909 Y139.152 E49.43357
G0 F5250 X135.616 Y139.152
G1 F1200 X140.843 Y144.379 E49.6798
G0 F5250 X140.843 Y145.086
G1 F1200 X139.155 Y143.398 E49.75932
G1 X139.067 Y143.31
G0 F5250 X138.365 Y142.607
G1 F1200 X137.394 Y141.637 E49.80504
G1 X137.306 Y141.549
G0 F5250 X136.914 Y139.036
G1 F1200 X140.962 Y143.083 E49.99571
G0 F5250 X141.375 Y142.789
G1 F1200 X137.209 Y138.623 E50.19196
G0 F5250 X137.502 Y138.209
G1 F1200 X141.788 Y142.495 E50.39387
G1 X141.876 Y142.583
G0 F5250 X140.843 Y143.672
G1 F1200 X136.323 Y139.152 E50.60679
G1 X136.235 Y139.064
G0 F5250 X137.825 Y137.825
G1 F1200 X142.172 Y142.172 E50.81157
G0 F5250 X142.498 Y141.791
G1 F1200 X138.208 Y137.501 E51.01366
G0 F5250 X138.624 Y137.209
G1 F1200 X142.79 Y141.376 E51.20994
G0 F5250 X143.082 Y140.961
G1 F1200 X139.039 Y136.918 E51.4004
G0 F5250 X139.155 Y136.326
G1 F1200 X143.672 Y140.843 E51.61318
G0 F5250 X144.379 Y140.843
G1 F1200 X139.155 Y135.619 E51.85928
G0 F5250 X139.155 Y134.912
G1 F1200 X140.842 Y136.6 E51.93877
G1 X140.93 Y136.688
G0 F5250 X141.637 Y137.395
G1 F1200 X142.605 Y138.363 E51.98437
G1 X142.693 Y138.451
G0 F5250 X143.399 Y139.156
G1 F1200 X145.086 Y140.843 E52.06384
G0 F5250 X145.793 Y140.843
G1 F1200 X144.106 Y139.156 E52.14331
G0 F5250 X144.813 Y139.156
G1 F1200 X146.5 Y140.843 E52.22278
G0 F5250 X147.207 Y140.843
G1 F1200 X145.52 Y139.156 E52.30226
G0 F5250 X146.227 Y139.156
G1 F1200 X147.914 Y140.843 E52.38173
G0 F5250 X148.621 Y140.843
G1 F1200 X146.934 Y139.156 E52.4612
G0 F5250 X147.641 Y139.156
G1 F1200 X149.328 Y140.843 E52.54067
G0 F5250 X150.036 Y140.843
G1 F1200 X148.348 Y139.156 E52.62016
G0 F5250 X149.055 Y139.156
G1 F1200 X150.743 Y140.843 E52.69966
G0 F5250 X151.45 Y140.843
G1 F1200 X149.763 Y139.156 E52.77913
G0 F5250 X150.47 Y139.156
G1 F1200 X152.157 Y140.843 E52.8586
G0 F5250 X152.864 Y140.843
G1 F1200 X151.177 Y139.156 E52.93807
G0 F5250 X151.884 Y139.156
G1 F1200 X153.571 Y140.843 E53.01754
G0 F5250 X154.278 Y140.843
G1 F1200 X152.591 Y139.156 E53.09701
G0 F5250 X153.298 Y139.156
G1 F1200 X154.985 Y140.843 E53.17649
G0 F5250 X155.692 Y140.843
G1 F1200 X154.005 Y139.156 E53.25596
G0 F5250 X154.712 Y139.156
G1 F1200 X156.399 Y140.843 E53.33543
G0 F5250 X157.107 Y140.843
G1 F1200 X155.419 Y139.156 E53.41492
G0 F5250 X156.127 Y139.156
G1 F1200 X157.814 Y140.843 E53.49439
G0 F5250 X158.521 Y140.843
G1 F1200 X156.834 Y139.156 E53.57386
G0 F5250 X157.541 Y139.156
G1 F1200 X159.228 Y140.843 E53.65334
